img/favicon/icon-32.svg

<svg width="32" height="32" viewBox="0 0 32 32" fill="none" xmlns="http://www.w3.org/2000/svg">
<rect width="32" height="32" fill="#EEEEEE"/>
<path d="M7.64247 20.1762C7.13836 19.4452 6.89732 18.5707 6.95739 17.6907V14.0988C6.89379 13.2124 7.13119 12.3302 7.63268 11.5893C8.08614 11.0178 8.86094 10.7337 9.95707 10.7369C11.0532 10.7401 11.7954 10.9907 12.1836 11.4888C12.657 12.106 12.8879 12.8691 12.8344 13.6391V14.482H10.8085V13.5672C10.8058 13.3266 10.7845 13.0864 10.7449 12.8489C10.7204 12.6769 10.6397 12.5173 10.5149 12.3939C10.4379 12.3292 10.3484 12.2803 10.2518 12.2498C10.1552 12.2194 10.0533 12.2081 9.95218 12.2167C9.80694 12.1955 9.65856 12.2186 9.52722 12.2829C9.39588 12.3471 9.28796 12.4495 9.21816 12.5759C9.08949 12.9122 9.03286 13.2708 9.05178 13.6295V18.1887C9.02946 18.5498 9.09486 18.9108 9.24263 19.2423C9.31323 19.3619 9.418 19.4587 9.54405 19.5209C9.67011 19.583 9.81196 19.6077 9.95218 19.5919C10.09 19.611 10.2304 19.587 10.3534 19.5234C10.4764 19.4597 10.5758 19.3597 10.6373 19.2376C10.7556 18.9006 10.8071 18.5446 10.789 18.1887V17.2309H12.8148V18.0594C12.8745 18.8407 12.6624 19.6188 12.213 20.2672C11.7823 20.794 11.0385 21.0526 9.98154 21.0526C8.92455 21.0526 8.09756 20.7653 7.64247 20.1762Z" fill="#111111"/>
<path d="M15.4668 10.9474H17.8111L19.7894 20.8421H17.8408L17.4896 18.6558H15.8476L15.452 20.828H13.4736L15.4668 10.9474ZM17.272 17.4119L16.6488 13.4352L16.0306 17.4119H17.272Z" fill="#111111"/>
<path d="M21.1696 12.4384H19.5789V10.9474H24.842V12.4384H23.2709V20.8421H21.1647L21.1696 12.4384Z" fill="#111111"/>
</svg>

<svg width="32" height="32" fill="none" xmlns="http://www.w3.org/2000/svg"><path fill="#EEE" d="M0 0h32v32H0z"/><path d="M7.642 20.176a3.907 3.907 0 0 1-.685-2.485v-3.592a3.968 3.968 0 0 1 .676-2.51c.453-.571 1.228-.855 2.324-.852 1.096.003 1.838.254 2.227.752a3.17 3.17 0 0 1 .65 2.15v.843H10.81v-.915a4.688 4.688 0 0 0-.064-.718.798.798 0 0 0-.23-.455.768.768 0 0 0-.563-.177.728.728 0 0 0-.425.066.707.707 0 0 0-.309.293 2.569 2.569 0 0 0-.166 1.053v4.56c-.023.36.043.722.19 1.053a.737.737 0 0 0 .71.35.673.673 0 0 0 .401-.069.654.654 0 0 0 .284-.285c.119-.337.17-.693.152-1.05v-.957h2.026v.828c.06.782-.153 1.56-.602 2.208-.43.527-1.174.786-2.231.786s-1.884-.288-2.34-.877Zm7.825-9.229h2.344l1.978 9.895h-1.948l-.351-2.186h-1.642l-.396 2.172h-1.978l1.993-9.88Zm1.805 6.465-.623-3.977-.618 3.977h1.241Zm3.898-4.974h-1.591v-1.49h5.263v1.49h-1.571v8.404h-2.106l.005-8.404Z" fill="#111"/></svg>
